src/lib/packages/icons/src/assets/filled/apple-fruit.svg

<svg width="24" height="24" viewBox="0 0 24 24" fill="none" xmlns="http://www.w3.org/2000/svg">
<path d="M11.5 7C11.5 4.06 13.06 2.5 16 2.5C16.28 2.5 16.5 2.72 16.5 3C16.5 5.94 14.94 7.5 12 7.5C11.72 7.5 11.5 7.28 11.5 7ZM15.59 9.01001C13.92 8.67001 12.88 9.09001 12 10.01C11.12 9.09001 10.08 8.67001 8.41 9.01001C6.12 9.48001 5 11.38 5 14C5 17.2 7.3 21 9.63 21C11.05 21 11.1 20.5 12 20.5C12.9 20.5 12.95 21 14.37 21C16.7 21 19 17.2 19 14C19 11.38 17.88 9.48001 15.59 9.01001Z" fill="currentColor"/>
</svg>

<svg xmlns="http://www.w3.org/2000/svg" width="24" height="24" fill="none"><path fill="currentColor" d="M11.5 7c0-2.94 1.56-4.5 4.5-4.5.28 0 .5.22.5.5 0 2.94-1.56 4.5-4.5 4.5-.28 0-.5-.22-.5-.5Zm4.09 2.01c-1.67-.34-2.71.08-3.59 1-.88-.92-1.92-1.34-3.59-1C6.12 9.48 5 11.38 5 14c0 3.2 2.3 7 4.63 7 1.42 0 1.47-.5 2.37-.5.9 0 .95.5 2.37.5C16.7 21 19 17.2 19 14c0-2.62-1.12-4.52-3.41-4.99Z"/></svg>
